packages/ui-icons/svg/Solid/move-down.svg

<svg viewBox="0 0 1920 1920" version="1.1" xmlns="http://www.w3.org/2000/svg">
    <path d="M1920,1524.40706 L1920,1750.28941 L677.647059,1750.28941 L677.647059,1524.40706 L1920,1524.40706 Z M1920,1072.52941 L1920,1298.52471 L677.647059,1298.52471 L677.647059,1072.52941 L1920,1072.52941 Z M225.882353,169.067765 L225.882353,620.945412 L348.649412,620.945412 L348.649412,398.564235 L790.588235,733.773647 L348.649412,1069.096 L348.649412,846.714824 L0,846.714824 L0,169.067765 L225.882353,169.067765 Z M1242.35294,620.877647 L1242.35294,846.76 L1016.47059,846.76 L1016.47059,620.877647 L1242.35294,620.877647 Z M1581.17647,620.877647 L1581.17647,846.76 L1355.29412,846.76 L1355.29412,620.877647 L1581.17647,620.877647 Z M1920,620.877647 L1920,846.76 L1694.11765,846.76 L1694.11765,620.877647 L1920,620.877647 Z M1920,169 L1920,394.995294 L677.647059,394.995294 L677.647059,169 L1920,169 Z" stroke="none" stroke-width="1" fill-rule="evenodd"/>
</svg>

<svg viewBox="0 0 1920 1920" xmlns="http://www.w3.org/2000/svg">
    <path d="M1920 1524.407v225.882H677.647v-225.882H1920Zm0-451.878v225.996H677.647v-225.996H1920ZM225.882 169.068v451.877H348.65v-222.38l441.94 335.209-441.94 335.322V846.715H0V169.068h225.882Zm1016.47 451.81V846.76h-225.881V620.878h225.882Zm338.824 0V846.76h-225.882V620.878h225.882Zm338.824 0V846.76h-225.882V620.878H1920ZM1920 169v225.995H677.647V169H1920Z" fill-rule="evenodd"/>
</svg>
